X: 17622
T: Hold The Reins
R: reel
M: 4/4
K: Gmajor
g2dc BG~G2|ABcA defd|g2dc BG~G2|1 BdcA GABd:|2 BdcA G2Bc||
df~f2 dg~g2|defd edBA|df~f2 dg~g2|fdcA G2Bc|
df~f2 dg~g2|defd edBc|dg~g2 bgag|fdcA GABd||

